src/Assets/icons/collaborative.svg

<svg width="82" height="81" viewBox="0 0 82 81" fill="none" xmlns="http://www.w3.org/2000/svg">
<circle cx="41" cy="40.5" r="40.5" fill="#F2B04D"/>
<circle cx="41" cy="40.5" r="40.5" fill="url(#paint0_linear_605_185)" fill-opacity="0.2"/>
<path d="M57.4 36.3778C57.4 35.2439 57.0638 34.1354 56.4338 33.1925C55.8038 32.2497 54.9084 31.5148 53.8607 31.0809C52.8131 30.647 51.6603 30.5334 50.5482 30.7546C49.436 30.9759 48.4144 31.5219 47.6126 32.3237C46.8108 33.1255 46.2647 34.1471 46.0435 35.2593C45.8223 36.3714 45.9358 37.5242 46.3698 38.5719C46.8037 39.6195 47.5386 40.5149 48.4814 41.1449C49.4242 41.7749 50.5327 42.1111 51.6667 42.1111C53.1872 42.1111 54.6455 41.5071 55.7208 40.4319C56.796 39.3567 57.4 37.8984 57.4 36.3778ZM49.7556 36.3778C49.7556 35.9998 49.8676 35.6303 50.0776 35.316C50.2876 35.0018 50.5861 34.7568 50.9353 34.6122C51.2845 34.4675 51.6688 34.4297 52.0395 34.5034C52.4102 34.5772 52.7508 34.7592 53.018 35.0264C53.2853 35.2937 53.4673 35.6342 53.5411 36.005C53.6148 36.3757 53.577 36.7599 53.4323 37.1092C53.2877 37.4584 53.0427 37.7568 52.7284 37.9668C52.4141 38.1768 52.0447 38.2889 51.6667 38.2889C51.1598 38.2889 50.6737 38.0876 50.3153 37.7292C49.9569 37.3708 49.7556 36.8847 49.7556 36.3778Z" fill="white"/>
<path d="M51.6667 44.0222C50.4019 44.0199 49.1492 44.2688 47.9813 44.7543C46.8134 45.2398 45.7535 45.9524 44.8631 46.8507C43.7625 44.4852 41.8882 42.5658 39.5495 41.4093C37.2109 40.2528 34.5478 39.9284 31.9999 40.4896C29.452 41.0509 27.1717 42.4642 25.5354 44.4963C23.8992 46.5284 23.0048 49.0577 23 51.6667V57.4H61.2222V53.5778C61.2222 51.0435 60.2155 48.613 58.4235 46.821C56.6315 45.029 54.201 44.0222 51.6667 44.0222ZM45.9333 53.5778C45.9333 52.0572 46.5374 50.5989 47.6126 49.5237C48.6878 48.4485 50.1461 47.8444 51.6667 47.8444C53.1872 47.8444 54.6455 48.4485 55.7207 49.5237C56.796 50.5989 57.4 52.0572 57.4 53.5778H45.9333Z" fill="white"/>
<path d="M34.4667 38.2889C38.6886 38.2889 42.1111 34.8664 42.1111 30.6444C42.1111 26.4225 38.6886 23 34.4667 23C30.2448 23 26.8222 26.4225 26.8222 30.6444C26.8222 34.8664 30.2448 38.2889 34.4667 38.2889Z" fill="white"/>
<defs>
<linearGradient id="paint0_linear_605_185" x1="41" y1="21.5" x2="41" y2="101.5" gradientUnits="userSpaceOnUse">
<stop stop-opacity="0"/>
<stop offset="1"/>
</linearGradient>
</defs>
</svg>

<svg xmlns="http://www.w3.org/2000/svg" width="82" height="81" fill="none" xmlns:v="https://vecta.io/nano"><circle cx="41" cy="40.5" r="40.5" fill="#f2b04d"/><circle cx="41" cy="40.5" r="40.5" fill="url(#A)" fill-opacity=".2"/><path d="M57.4 36.378a5.73 5.73 0 0 0-3.539-5.297c-1.048-.434-2.2-.547-3.312-.326s-2.134.767-2.936 1.569a5.73 5.73 0 0 0-1.569 2.936c-.221 1.113-.108 2.265.326 3.313a5.73 5.73 0 0 0 5.297 3.539c1.52 0 2.979-.604 4.054-1.679S57.4 37.9 57.4 36.379zm-7.644 0a1.91 1.91 0 0 1 3.263-1.352 1.91 1.91 0 0 1-1.352 3.263 1.91 1.91 0 0 1-1.911-1.911zm1.911 7.644a9.57 9.57 0 0 0-3.685.732c-1.168.485-2.228 1.198-3.118 2.096-1.101-2.366-2.975-4.285-5.314-5.441s-5.002-1.481-7.55-.92a11.47 11.47 0 0 0-6.465 4.007c-1.637 2.032-2.531 4.561-2.535 7.17V57.4h38.222v-3.822c0-2.534-1.007-4.965-2.799-6.757s-4.222-2.799-6.757-2.799zm-5.733 9.556c0-1.521.604-2.979 1.679-4.054s2.533-1.679 4.054-1.679 2.979.604 4.054 1.679 1.679 2.534 1.679 4.054H45.933zM34.467 38.289c4.222 0 7.644-3.422 7.644-7.644S38.689 23 34.467 23s-7.645 3.422-7.645 7.644 3.423 7.644 7.645 7.644z" fill="#fff"/><defs><linearGradient id="A" x1="41" y1="21.5" x2="41" y2="101.5" gradientUnits="userSpaceOnUse"><stop stop-opacity="0"/><stop offset="1"/></linearGradient></defs></svg>
